docs/assets/img/sofa.svg

<svg xmlns="http://www.w3.org/2000/svg" viewBox="0 0 32 32">
    <path style="text-indent:0;text-align:start;line-height:normal;text-transform:none;block-progression:tb;-inkscape-font-specification:Sans" d="M 16 3 C 12.198898 3 9.7637512 3.6242291 8.1875 4.625 C 6.6112488 5.6257709 5.96875 7.0816057 5.96875 8.28125 C 5.96875 9.5070011 6.2866148 10.675117 6.78125 12.09375 C 6.526077 12.023889 6.2692641 12 6 12 C 5.3179115 12 4.6562501 12.231852 4.125 12.65625 C 2.8421817 13.685782 2.6309126 15.591463 3.65625 16.875 L 6.96875 21 C 7.985298 22.259168 9.5059349 23 11.125 23 L 16 23 L 20.875 23 C 22.501695 23 24.044943 22.271027 25.0625 21 L 28.34375 16.875 C 29.369619 15.590798 29.157535 13.685261 27.875 12.65625 C 27.342278 12.230373 26.680614 12 26 12 C 25.730736 12 25.473931 12.024025 25.21875 12.09375 C 25.713271 10.67498 26.03125 9.5068115 26.03125 8.28125 C 26.03125 7.0816057 25.388751 5.6257709 23.8125 4.625 C 22.236249 3.6242291 19.801102 3 16 3 z M 16 5 C 19.575898 5 21.660501 5.6207709 22.75 6.3125 C 23.839499 7.0042291 24.03125 7.6948943 24.03125 8.28125 C 24.03125 9.8554657 23.266975 11.598538 21.90625 15.3125 L 20.5625 17 L 16 17 L 11.4375 17 L 10.09375 15.3125 C 8.7462078 11.63463 7.96875 9.8475576 7.96875 8.28125 C 7.96875 7.6948943 8.1605012 7.0042291 9.25 6.3125 C 10.339499 5.6207709 12.424102 5 16 5 z M 6 14 C 6.3116393 14 6.5848866 14.130443 6.78125 14.375 L 10.0625 18.5 L 10.09375 18.5 C 10.339592 18.803687 10.728538 19 11.125 19 L 16 19 L 20.875 19 C 21.271462 19 21.690499 18.809673 21.9375 18.5 L 23.65625 16.34375 L 25.21875 14.375 C 25.415192 14.129832 25.688361 14 26 14 C 26.223386 14 26.449722 14.07863 26.625 14.21875 C 27.062465 14.569739 27.129381 15.189202 26.78125 15.625 L 23.5 19.75 C 22.855557 20.554973 21.904305 21 20.875 21 L 16 21 L 11.125 21 C 10.09447 21 9.1435094 20.554774 8.5 19.75 L 5.21875 15.625 C 4.8700874 15.188537 4.9358183 14.571218 5.375 14.21875 C 5.5497499 14.079148 5.7780885 14 6 14 z M 15 24 L 15 27 L 11 27 L 11 29 L 21 29 L 21 27 L 17 27 L 17 24 L 15 24 z" overflow="visible" font-family="Sans"></path>
</svg>

<svg xmlns="http://www.w3.org/2000/svg" viewBox="0 0 32 32"><path style="text-indent:0;text-align:start;line-height:normal;text-transform:none;block-progression:tb;-inkscape-font-specification:Sans" d="M16 3c-3.801 0-6.236.624-7.813 1.625-1.576 1-2.218 2.457-2.218 3.656 0 1.226.318 2.394.812 3.813A2.918 2.918 0 0 0 6 12c-.682 0-1.344.232-1.875.656a3.022 3.022 0 0 0-.469 4.219L6.97 21a5.342 5.342 0 0 0 4.156 2h9.75c1.627 0 3.17-.729 4.188-2l3.28-4.125a3.021 3.021 0 0 0-.468-4.219A3.002 3.002 0 0 0 26 12c-.27 0-.526.024-.781.094.494-1.419.812-2.587.812-3.813 0-1.2-.642-2.655-2.218-3.656C22.236 3.625 19.8 3 16 3zm0 2c3.576 0 5.66.62 6.75 1.313 1.09.691 1.281 1.382 1.281 1.968 0 1.574-.764 3.318-2.125 7.031L20.563 17h-9.126l-1.343-1.688c-1.348-3.677-2.125-5.464-2.125-7.03 0-.587.192-1.278 1.281-1.97C10.34 5.622 12.424 5 16 5zM6 14c.312 0 .585.13.781.375l3.282 4.125h.03c.247.304.636.5 1.032.5h9.75c.396 0 .815-.19 1.063-.5l1.718-2.156 1.563-1.969A.975.975 0 0 1 26 14c.223 0 .45.079.625.219.437.35.504.97.156 1.406L23.5 19.75A3.325 3.325 0 0 1 20.875 21h-9.75A3.323 3.323 0 0 1 8.5 19.75l-3.281-4.125a.99.99 0 0 1 .156-1.406A1.02 1.02 0 0 1 6 14zm9 10v3h-4v2h10v-2h-4v-3h-2z" overflow="visible" font-family="Sans"/></svg>
